static/images/mobile/copyright/wikipedia-wordmark-zh_yue.svg

<?xml version="1.0" encoding="UTF-8"?>
<svg width="120px" height="26px" viewBox="0 0 120 26" version="1.1" xmlns="http://www.w3.org/2000/svg" xmlns:xlink="http://www.w3.org/1999/xlink">
    <title>wikipedia-wordmark-zh-yue</title>
    <g id="Page-1" stroke="none" stroke-width="1" fill="none" fill-rule="evenodd">
        <path d="M23.1984094,20.4949144 L26.0302984,22.6255738 C25.8124608,22.9749044 25.4584747,23.0827858 24.696043,23.0827858 L14.7312688,23.0827858 L14.7312688,24.323423 C14.7312688,24.5661563 13.887148,25.3213268 12.4984332,25.3213268 L12.0082986,25.3213268 L12.0082986,8.89893858 C11.327556,9.73373582 10.5923541,10.5171609 9.85715212,11.1914202 C10.6468135,11.918336 10.9735699,12.646536 10.9735699,13.2411685 C10.9735699,14.1838473 10.2655976,14.8311362 9.5303957,14.8311362 C9.12195017,14.8311362 8.71350464,14.669314 8.38674821,14.237788 C8.38674821,13.6983806 8.30505911,13.0510916 8.14168089,12.4307731 L6.94357401,12.7813879 L6.94357401,24.5918424 C6.94357401,24.7536646 6.09945324,25.3470128 4.76519785,25.3470128 L4.30229291,25.3470128 L4.30229291,16.7717187 C4.1661444,16.8256595 3.97553649,16.8796002 3.70323947,16.8796002 C2.96803752,19.4405013 1.87884944,21.813894 0.435675232,23.2433238 L0,23.0275608 C0.707972252,21.301457 1.22533659,18.3899411 1.4159445,15.6659334 L4.30229291,16.2605659 L4.30229291,13.4826176 C3.51263156,13.6983806 2.6957405,13.9141435 1.76993063,14.1299065 C1.60655242,14.4792371 1.3070257,14.669314 1.03472868,14.7232547 L0.054459404,11.918336 C0.735201954,11.918336 1.76993063,11.918336 3.02249692,11.8913656 C4.49290083,9.19432838 6.07222354,5.77037539 7.07842586,3.29038543 L10.6442202,4.74678554 C10.5353014,4.96254852 10.3446934,5.09611608 9.96347762,5.09611608 C9.85455881,5.09611608 9.7184103,5.0691457 9.55503209,5.04345964 C8.19354699,7.01101252 6.06963024,9.65410901 4.00146954,11.8656795 C5.19957643,11.8387092 6.53383182,11.8117388 7.92124997,11.7577981 C7.64895295,11.029598 7.32219653,10.3553387 6.9409807,9.84290162 L7.21327772,9.68236369 C8.08462818,10.0316942 8.76537073,10.3823091 9.30996477,10.7611786 C10.9165172,8.11679778 12.5502993,3.99161511 13.5565016,0.0282546758 L17.2856742,1.24192143 C17.1767553,1.5655659 16.9044583,1.78132888 16.2237158,1.72738814 C15.5702029,3.21075862 14.8622307,4.64018835 14.0453396,5.9604523 L15.0800683,6.36500788 L17.5852009,6.36500788 C17.9664167,4.74678554 18.5926998,2.15891409 18.9739157,0.324928772 L22.9481555,1.10578527 C22.8664664,1.53731123 22.5941694,1.72610383 21.8317377,1.72610383 C20.987617,3.04636778 19.6261319,5.04345964 18.6458626,6.36372358 L21.4505219,6.36372358 L22.9481555,4.3961707 L25.7528148,6.41766432 C25.5077475,6.76827916 25.1537614,6.87616065 24.4457891,6.87616065 L20.4170899,6.87616065 L20.4170899,11.5664368 L21.31567,11.5664368 L22.7043848,9.67979508 L25.3184362,11.6216619 C25.1005986,11.9709924 24.7466125,12.1058443 24.0386402,12.1058443 L20.4183865,12.1058443 L20.4183865,16.9874817 L21.3169667,16.9874817 L22.7056815,15.0995556 L25.3197329,17.0414224 C25.1018953,17.390753 24.7479091,17.5268891 24.0399369,17.5268891 L20.4196832,17.5268891 L20.4196832,22.5690645 L21.6722495,22.5690645 L23.1984094,20.4949144 L23.1984094,20.4949144 Z M0.276186977,4.55799293 C1.17476714,4.74678554 1.9099691,4.98951889 2.48179284,5.26050692 C2.97192747,3.80282251 3.54375122,1.78132888 3.97942645,0.00128430345 L7.65413956,1.24192143 C7.54522076,1.5655659 7.27292374,1.72738814 6.61941089,1.72738814 C5.58468221,3.1298475 4.38657532,4.58624761 3.24292784,5.69203288 C4.0598189,6.25712639 4.38657532,6.9313857 4.38657532,7.49776352 C4.38657532,8.27990432 3.78752188,8.92719326 3.07954963,8.92719326 C2.7255635,8.92719326 2.37157738,8.76408672 2.04482095,8.44044225 C1.85421304,7.20108943 0.982862576,5.6637782 0.0570527089,4.77375591 L0.276186977,4.55799293 L0.276186977,4.55799293 Z M7.62690986,15.6954724 C10.1048127,16.9900503 10.9217038,18.4464504 10.9217038,19.523981 C10.9217038,20.5206005 10.2409613,21.2231145 9.5057593,21.2231145 C9.12454347,21.2231145 8.74332764,21.0343219 8.41657122,20.6027959 C8.49826032,19.1194254 8.00812569,17.0696771 7.32738314,15.8303243 L7.62690986,15.6954724 L7.62690986,15.6954724 Z M17.726536,6.87872926 L14.7312688,6.87872926 L14.7312688,11.5690054 L17.726536,11.5690054 L17.726536,6.87872926 Z M17.726536,16.9900503 L17.726536,12.1084129 L14.7312688,12.1084129 L14.7312688,16.9900503 L17.726536,16.9900503 Z M14.7325654,17.5294577 L14.7325654,22.5716331 L17.7278326,22.5716331 L17.7278326,17.5294577 L14.7325654,17.5294577 Z M57.044929,13.8614871 C56.8543211,14.2121019 56.500335,14.3469538 55.7379033,14.3469538 L48.8773151,14.3469538 C51.1101506,16.1809391 54.485337,17.2327836 57.3444557,17.6373392 L57.317226,17.907043 C56.0646597,18.4721365 55.6289845,19.6061764 55.5200657,20.9277247 C52.4975688,19.7410283 49.7486655,17.5577124 48.0876537,14.3482381 L41.3904437,14.3482381 C39.4299051,17.4768013 35.8913405,19.7153422 31.4256694,21.170458 L31.2078318,20.7389321 C34.0669505,19.1759348 36.2984894,16.8564827 37.6327448,14.3482381 L31.5618179,14.3482381 L31.4256694,13.8088307 L37.2787587,13.8088307 L37.2787587,4.26260314 L32.4876278,4.26260314 L32.3514793,3.72319569 L37.2787587,3.72319569 L37.2787587,0.0565093517 L41.363214,0.432810262 C41.3359843,0.837365847 41.0364575,1.02615845 40.2195665,1.13403994 L40.2195665,3.72319569 L48.1148834,3.72319569 L48.1148834,0.0565093517 L52.2537981,0.432810262 C52.2265684,0.837365847 51.9542714,1.02615845 51.1101506,1.13403994 L51.1101506,3.72319569 L51.899812,3.72319569 L53.4246753,1.70170207 L56.2021049,3.80410681 C56.011497,4.12775128 55.6575109,4.26260314 54.8950792,4.26260314 L51.1101506,4.26260314 L51.1101506,13.8088307 L52.5805545,13.8088307 L54.1598773,11.6255148 L57.044929,13.8614871 L57.044929,13.8614871 Z M50.6744754,23.8649266 L52.4716357,21.62767 L55.7664297,23.9201517 C55.5485921,24.2694822 55.1946059,24.4043341 54.4321743,24.4043341 L33.0322218,24.4043341 L32.8688436,23.8649266 L42.64301,23.8649266 L42.64301,19.739744 L37.1711365,19.739744 L37.034988,19.2003365 L42.64301,19.2003365 L42.64301,15.6145613 L46.6989389,15.9908622 C46.6444795,16.3697317 46.4266419,16.5302697 45.6369805,16.6381512 L45.6369805,19.2003365 L47.1618438,19.2003365 L48.6594774,17.2854401 L51.3824476,19.2825319 C51.1918397,19.6061764 50.8378536,19.739744 50.1298814,19.739744 L45.6382772,19.739744 L45.6382772,23.8649266 L50.6744754,23.8649266 L50.6744754,23.8649266 Z M48.1148834,4.26131884 L40.2195665,4.26131884 L40.2195665,7.06623756 L48.1148834,7.06623756 L48.1148834,4.26131884 Z M40.2195665,7.60564501 L40.2195665,10.4105637 L48.1148834,10.4105637 L48.1148834,7.60564501 L40.2195665,7.60564501 Z M40.2195665,13.8075464 L48.1148834,13.8075464 L48.1148834,10.9217165 L40.2195665,10.9217165 L40.2195665,13.8075464 Z M84.9022108,0.540691751 L88.1970047,2.80620303 C87.9791671,3.1298475 87.6524107,3.26341506 86.889979,3.26341506 L77.7407992,3.26341506 C76.625678,5.07043001 75.1812072,7.25374587 74.0116267,8.68445991 L80.8994446,8.68445991 L82.0975515,7.09449224 L85.2561969,9.38568959 C85.0928187,9.60145257 84.7116029,9.84290162 84.1670088,9.95078311 L84.1670088,24.1359147 C84.1670088,24.1885711 83.3501178,24.9707119 81.1717416,24.9707119 L81.1717416,22.8413368 L69.7650898,22.8413368 L69.7650898,24.2155415 C69.7650898,24.2964526 69.4111037,25.3482971 66.824282,25.3482971 L66.824282,7.38988203 L69.9829274,8.68445991 L73.1960322,8.68445991 C73.3308841,7.2280598 73.5227887,4.98951889 73.6576405,3.26341506 L63.0406501,3.26341506 L62.8772718,2.75226229 L83.1322802,2.75226229 L84.9022108,0.540691751 L84.9022108,0.540691751 Z M81.1717416,9.22386735 L69.7650898,9.22386735 L69.7650898,15.1843197 L81.1717416,15.1843197 L81.1717416,9.22386735 L81.1717416,9.22386735 Z M69.7650898,22.3288997 L81.1717416,22.3288997 L81.1717416,15.7224428 L69.7650898,15.7224428 L69.7650898,22.3288997 Z M101.297085,9.00810438 L101.297085,12.0827268 C104.427204,13.107601 105.434703,14.5896872 105.434703,15.6954724 C105.434703,16.5585243 104.78119,17.2058133 104.045988,17.2058133 C103.693298,17.2058133 103.283556,17.043991 102.930867,16.6394355 C102.849178,15.3731123 102.141205,13.7009492 101.297085,12.5681935 L101.297085,24.5134999 C101.269855,24.7022925 100.369978,25.3495814 98.9540337,25.3495814 L98.4651957,25.3495814 L98.4651957,15.4527391 C97.3202516,17.3419494 95.904307,19.066769 94.2445919,20.5501395 L93.8633761,20.1995246 C95.9328334,17.1531568 97.2943185,12.947063 98.0295205,9.00938868 L94.2445919,9.00938868 L94.10974,8.46998123 L98.4651957,8.46998123 L98.4651957,4.18297633 C96.9934951,4.50662079 95.4426988,4.80201059 94.0267543,5.01777357 L93.9178355,4.66715873 C96.8041839,3.4278059 100.560586,1.35108723 102.438139,0.0295389793 L105.761459,2.69960585 C105.596784,2.86142808 105.353014,2.94105489 104.999028,2.94105489 C104.725434,2.94105489 104.427204,2.88839845 104.045988,2.78051696 C103.257623,3.02196601 102.330517,3.26469936 101.297085,3.50743271 L101.297085,8.46869693 L102.059516,8.46869693 L103.446934,6.52683012 L106.006526,8.54832374 C105.788689,8.89893858 105.435999,9.00682007 104.72673,9.00682007 L101.297085,9.00682007 L101.297085,9.00810438 Z M117.467638,13.3760204 L120,15.3178872 C119.891081,15.6145613 119.646014,15.8033539 119.10142,15.8829807 L115.699004,16.5032993 L115.699004,24.2951683 C115.699004,24.3503934 115.263329,25.3213268 112.867115,25.3213268 L112.867115,17.0427067 L104.782487,18.5260772 L104.537419,18.0393262 L112.868411,16.4763289 L112.868411,0 L116.788192,0.377585213 C116.733732,0.755170427 116.515895,0.943963033 115.699004,1.05184452 L115.699004,15.9369215 L116.325287,15.82904 L117.467638,13.3760204 L117.467638,13.3760204 Z M105.815919,9.89812666 C109.953537,10.1138896 111.316318,11.6499166 111.316318,12.8635833 C111.316318,13.7266352 110.635576,14.4291492 109.818685,14.4291492 C109.465995,14.4291492 109.083483,14.2942974 108.703564,13.9976233 C108.295118,12.6221343 107.014025,11.0039119 105.681067,10.14086 L105.815919,9.89812666 L105.815919,9.89812666 Z M106.660039,2.75226229 C110.553887,3.26341506 111.832386,4.82898096 111.832386,6.01567734 C111.832386,6.90441533 111.151644,7.60564501 110.361982,7.60564501 C109.980766,7.60564501 109.59955,7.47079315 109.218335,7.12017831 C108.920105,5.6637782 107.747931,3.93767437 106.495364,2.96802527 L106.660039,2.75226229 L106.660039,2.75226229 Z" id="wikipedia-wordmark-zh-yue" fill="#000000" fill-rule="nonzero"></path>
    </g>
</svg>

<svg xmlns="http://www.w3.org/2000/svg" width="120" height="26"><path fill="#000" fill-rule="nonzero" d="m23.198 20.495 2.832 2.13c-.218.35-.572.458-1.334.458h-9.965v1.24c0 .243-.844.998-2.233.998h-.49V8.9a22.046 22.046 0 0 1-2.15 2.292c.789.727 1.116 1.456 1.116 2.05 0 .943-.708 1.59-1.444 1.59-.408 0-.816-.162-1.143-.593 0-.54-.082-1.187-.245-1.807l-1.198.35v11.81c0 .163-.845.756-2.179.756h-.463v-8.575a1.577 1.577 0 0 1-.599.108c-.735 2.56-1.824 4.934-3.267 6.363L0 23.028c.708-1.727 1.225-4.638 1.416-7.362l2.886.595v-2.778c-.79.215-1.606.431-2.532.647-.163.35-.463.54-.735.593l-.98-2.805c.68 0 1.715 0 2.967-.027 1.47-2.697 3.05-6.12 4.056-8.6l3.566 1.456c-.109.216-.3.35-.68.35-.11 0-.246-.028-.409-.054-1.361 1.968-3.485 4.611-5.554 6.823 1.199-.027 2.533-.054 3.92-.108-.272-.728-.599-1.403-.98-1.915l.272-.16c.872.349 1.552.7 2.097 1.078 1.607-2.644 3.24-6.77 4.247-10.733l3.729 1.214c-.11.324-.382.54-1.062.485-.654 1.484-1.362 2.913-2.179 4.233l1.035.405h2.505c.381-1.618 1.008-4.206 1.389-6.04l3.974.78c-.082.432-.354.621-1.116.621a94.044 94.044 0 0 1-3.186 4.638h2.805l1.497-1.968 2.805 2.022c-.245.35-.6.458-1.307.458h-4.029v4.69h.899l1.388-1.886 2.614 1.942c-.217.349-.571.484-1.28.484h-3.62v4.881h.899l1.389-1.887 2.614 1.941c-.218.35-.572.486-1.28.486h-3.62v5.042h1.252l1.526-2.074ZM.276 4.558c.899.189 1.634.432 2.206.703.49-1.458 1.062-3.48 1.497-5.26l3.675 1.24c-.109.325-.381.486-1.035.486-1.034 1.403-2.232 2.86-3.376 3.965.817.565 1.144 1.24 1.144 1.806 0 .782-.6 1.43-1.307 1.43-.354 0-.708-.164-1.035-.488C1.855 7.201.983 5.664.057 4.774l.22-.216Zm7.35 11.137c2.479 1.295 3.296 2.751 3.296 3.829 0 .997-.681 1.7-1.416 1.7-.381 0-.763-.19-1.09-.621.082-1.484-.408-3.533-1.089-4.773l.3-.135Zm10.1-8.816h-2.995v4.69h2.996v-4.69Zm0 10.111v-4.882h-2.995v4.882h2.996Zm-2.993.54v5.042h2.995v-5.043h-2.995Zm42.312-3.669c-.19.351-.545.486-1.307.486h-6.86c2.232 1.834 5.607 2.886 8.466 3.29l-.027.27c-1.252.565-1.688 1.7-1.797 3.02-3.022-1.186-5.771-3.37-7.432-6.579H41.39c-1.96 3.129-5.499 5.367-9.964 6.822l-.218-.431c2.859-1.563 5.09-3.883 6.425-6.39h-6.071l-.136-.54h5.853V4.263h-4.791l-.137-.54h4.928V.057l4.084.376c-.027.404-.327.593-1.143.701v2.59h7.895V.056l4.139.376c-.027.404-.3.593-1.144.701v2.59h.79l1.525-2.022 2.777 2.102c-.19.324-.544.459-1.307.459H51.11v9.546h1.47l1.58-2.183 2.885 2.235Zm-6.37 10.004 1.797-2.237 3.294 2.292c-.217.35-.571.484-1.334.484h-21.4l-.163-.54h9.774V19.74h-5.472l-.136-.54h5.608v-3.585l4.056.376c-.055.379-.272.54-1.062.647V19.2h1.525l1.497-1.915 2.723 1.998c-.19.323-.544.457-1.252.457h-4.492v4.125h5.036ZM48.114 4.26H40.22v2.805h7.895V4.261ZM40.22 7.606v2.805h7.895V7.606H40.22Zm0 6.202h7.895v-2.886H40.22v2.886ZM84.902.54l3.295 2.265c-.218.324-.545.457-1.307.457h-9.15c-1.114 1.807-2.559 3.99-3.728 5.421h6.887l1.199-1.59 3.158 2.292c-.163.215-.544.457-1.089.565v14.185c0 .053-.817.835-2.995.835v-2.13H69.765v1.375c0 .08-.354 1.132-2.94 1.132V7.39l3.158 1.294h3.213c.135-1.456.327-3.694.462-5.42H63.04l-.164-.512h20.255l1.77-2.211Zm-3.73 8.683H69.765v5.96h11.407v-5.96ZM69.765 22.329h11.407v-6.607H69.765v6.607Zm31.532-13.32v3.074c3.13 1.025 4.138 2.507 4.138 3.612 0 .864-.654 1.51-1.389 1.51-.353 0-.762-.161-1.115-.566-.082-1.266-.79-2.938-1.634-4.07v11.944c-.027.19-.927.837-2.343.837h-.489v-9.897a22.4 22.4 0 0 1-4.22 5.097l-.382-.35c2.07-3.047 3.431-7.253 4.167-11.19h-3.785l-.135-.54h4.355V4.183a71.039 71.039 0 0 1-4.438.835l-.11-.35c2.887-1.24 6.644-3.317 8.521-4.638l3.323 2.67c-.164.161-.408.241-.762.241-.274 0-.572-.053-.953-.16-.788.241-1.715.484-2.749.726V8.47h.763l1.387-1.942 2.56 2.021c-.218.35-.571.459-1.28.459h-3.43v.001Zm16.17 4.367L120 15.318c-.109.297-.354.485-.899.565l-3.402.62v7.792c0 .055-.436 1.026-2.832 1.026v-8.278l-8.085 1.483-.245-.487 8.331-1.563V0l3.92.378c-.054.377-.272.566-1.089.674v14.885l.626-.108 1.143-2.453Zm-11.651-3.478c4.138.216 5.5 1.752 5.5 2.966 0 .863-.68 1.565-1.497 1.565-.353 0-.736-.135-1.115-.431-.409-1.376-1.69-2.994-3.023-3.857l.135-.243Zm.844-7.146c3.894.511 5.172 2.077 5.172 3.264 0 .888-.68 1.59-1.47 1.59-.381 0-.762-.135-1.144-.486-.298-1.456-1.47-3.182-2.723-4.152l.165-.216Z"/></svg>
